X: 81
T:Double Rise
% Nottingham Music Database
S:Trad arr Hamish, via EF
M:4/4
K:D
M:6/8
"A"eAA gfe|"D"faf def|"G"gBB d2e|"Em"GdG "A"BAA|
"A"eAA gfe|"D"faf def|"G"gBB ded|"G"BAG [1"A"A3:|[2"A"AAB||
|:"A"c2A cde|"D"f2d fga|"G"g2B "D/f+"d2e|"Em"GdG "A"B2A|
"A"c2A cde|"D"f2d fga|"G"g2B "D/f+"ded|"Em"BAG "A"A3:|
"A"AAA eAa|"D"AAA fAa|"G"gBB d2e|"G"GdG "A"BAA|
"A"AAA eAa|"D"AAA fAa|"G"gBB ded|"G"BAG "A"A3:|
"A"cBA ecA|"D"fdA afa|"G"g2B "D/f+"d2e|"Em"GdG "A"BAA|
"A"cBA ecA|"D"fdA afa|"G"g2B "D/f+"ded|"Em"BAG "A"A3:|


